packages/calcite-ui-icons/icons/add-link-chart-root-nodes-24.svg

<?xml version="1.0" encoding="UTF-8"?><svg id="icons" xmlns="http://www.w3.org/2000/svg" viewBox="0 0 24 24"><defs><style>.cls-1{fill:none;}</style></defs><path d="M6.00006,19h3v.99902h-3v3.00098h-1v-3.00098h-3.00006v-.99902h3.00006v-3h1v3ZM23.20703,10.5l-9.70703,9.70703L3.79297,10.5,13.5.79297l9.70703,9.70703ZM13.5,18.79297l8.29297-8.29297L13.5,2.20703,5.20703,10.5l8.29297,8.29297ZM13.53223,12.92871l2.39648-2.39746-2.46094-2.45996-2.39648,2.39648,2.46094,2.46094Z"/><rect class="cls-1" width="24" height="24"/></svg>

<svg xmlns="http://www.w3.org/2000/svg" viewBox="0 0 24 24"><path d="M6 19h3v.999H6V23H5v-3.001H2V19h3v-3h1v3zm17.207-8.5L13.5 20.207 3.793 10.5 13.5.793l9.707 9.707zM13.5 18.793l8.293-8.293L13.5 2.207 5.207 10.5l8.293 8.293zm.032-5.864l2.397-2.398-2.461-2.46-2.397 2.397 2.461 2.46z"/><path fill="none" d="M0 0h24v24H0z"/></svg>
